!!!COM: Bach, Johann Sebastian
!!!OPR: Das wohltemperirte Clavier, Band II
!!!XEN: Well-Tempered Clavier, Volume II
!!!OTL: Prelude in C Major
!!!OMV: Prelude I
!!!SCT: BWV 870
!!!SCA: Thematisch-systematisches Verzeichnis der musikalischen Werke Johann Sebastian Bach: Bach-Werke-Verzeichnis (Schmieder)
!!!YOR: Bach Gesellschaft Edition xiv
!!!EED: Walter Hewlett
!!!ENC: Walter Hewlett
!!!CDT: 1685/3//-1750/7/28/
!!!OCY: Deutschland
!!!YEC: Copyright (c) 1994, 2000 Center for Computer Assisted Research in the Humanities
!!!YEM: Rights to all derivative editions reserved
!!!YEM: Refer to licensing agreement for further details
!!!YEN: United States of America
**kern
*I:
*clefG6
*k[]
*C:
*M4/4
=1-
*^
*^	*
16r	[1C/	[1CC\
16cc\LL	.	.
16dd\	.	.
16ee\JJ	.	.
16g/LL	.	.
16ee/	.	.
16f/	.	.
16dd/JJ	.	.
32e/LLL	.	.
32cc/	.	.
32b/	.	.
32a/J	.	.
16g/	.	.
16b-/JJ	.	.
16e/LL	.	.
16g/	.	.
16c/	.	.
16b-/JJ	.	.
=2	=2	=2
32a/LLL	1C/_	1CC\_
32g/	.	.
32f/	.	.
32e/J	.	.
16f/	.	.
16a/JJ	.	.
16d/LL	.	.
16f/	.	.
16A/	.	.
16c/JJ	.	.
16B/LL	.	.
16d/	.	.
16e/	.	.
16f/JJ	.	.
16G/LL	.	.
16f/	.	.
16e/	.	.
16d/JJ	.	.
=3	=3	=3
*^	*	*
[1e/	16ryy	16r	4C/ 4CC/
.	[8.c/	16c\LL	.
.	.	16B\	.
.	.	16A\JJ	.
.	4c/_	[4G\	16r
.	.	.	16F\LL
.	.	.	16E\
.	.	.	16D\JJ
.	2c/]	2G\]	32C\LLL
.	.	.	32D\
.	.	.	32C\
.	.	.	32BB\J
.	.	.	16C\
.	.	.	16E\JJ
.	.	.	16GG\LL
.	.	.	16BB-\
.	.	.	16AA\
.	.	.	16GG\JJ
=4	=4	=4	=4
4e/_	2A\	16r	[2FF\
.	.	16C/LL	.
.	.	16D/	.
.	.	16E/JJ	.
16e/LK]	.	8F/L	.
8d/	.	.	.
.	.	8E/J	.
16c/Jk	.	.	.
16B/LL	8.G\L	4D/	4FF\]
16d/J	.	.	.
[8g/J	.	.	.
.	16B\Jk	.	.
16g/LL]	[4c\	4E/	8EE\L
16g/	.	.	.
16f/	.	.	8AA\J
16e/JJ	.	.	.
=5	=5	=5	=5
[4f/	16c\LL]	2D/	4DD\
.	16c\	.	.
.	16d\	.	.
.	16A\JJ	.	.
16f/LL]	4B\	.	4GG\
16f/	.	.	.
16e/	.	.	.
16d/JJ	.	.	.
2e/	[2c\	16C/	16CC\LL
.	.	16r	16GG\
.	.	8r	16AA\
.	.	.	16BB\JJ
.	.	4r	16C\LL
.	.	.	16E\
.	.	.	16AA\
.	.	.	16C\JJ
=6	=6	=6	=6
[4d/	16c\LL]	2r	8FF#\L
.	16c\	.	.
.	16B\	.	8DD\J
.	16A\JJ	.	.
16d/LL]	4B\	.	[4GG\
16d/	.	.	.
16e/	.	.	.
16g/JJ	.	.	.
[4c/	[2A\	4r	16GG\LL]
.	.	.	32AA\L
.	.	.	32BB\
.	.	.	32C\
.	.	.	32D\J
.	.	.	16E\JJ
16c/LL]	.	8r	4FF#\
32a/L	.	.	.
32g/J	.	.	.
16a/	.	[8D/	.
16c/JJ	.	.	.
=7	=7	=7	=7
[4B/	16A\LL]	4D/_	4.GG\
.	16A\	.	.
.	16G\	.	.
.	16F#\JJ	.	.
16B/LL]	8G\	8D/]	.
16d/	.	.	.
16e/	8r	8r	8FFn\
16fn/JJ	.	.	.
[4g/	16r	8r	8EE\L
.	16e\LL	.	.
.	16B\	[4.E/	8GG\
.	16d\JJ	.	.
8.g/L]	16c#\LL	.	8AA\
.	16e\J	.	.
.	[8A\J	.	8C#\J
16g/Jk	.	.	.
=8	=8	=8	=8
2f/	4.A\]	16E/LL]	[4DD\
.	.	16AA/	.
.	.	16BB/	.
.	.	16C#/JJ	.
.	.	16D/	16DD\LL]
.	.	16r	16F\
.	[8d\	8r	16BB\
.	.	.	16D\JJ
[4e/	16d\LL]	2ryy	8GG#/L
.	16d\	.	.
.	16cn\	.	8EE/
.	16B\JJ	.	.
16e/LL]	[4c\	.	8AA/
16e/	.	.	.
16f/	.	.	8GGn/J
16g/JJ	.	.	.
=9	=9	=9	=9
*v	*v	*	*
32a/LLL	4c\]	8FF/L
32g/	.	.
32f/	.	.
32e/J	.	.
16f/	.	8EE/
16a/JJ	.	.
16d/LL	[4d\	8FF/
16cc/	.	.
16b/	.	8DD/J
16a/JJ	.	.
[4g#/	16d\LL]	[2EE/
.	16f\	.
.	16e\	.
.	16d\JJ	.
16g#/LL]	8.c\L	.
16e/J	.	.
[8a/J	.	.
.	16c\Jk	.
=10	=10	=10
*^	*	*
8a/L]	4.B\	2r	16EE\LL
.	.	.	16BB\
8a/	.	.	16C\
.	.	.	16D\JJ
8g/	.	.	16E\LL
.	.	.	16G\
8f/J	[8d\	.	16BB\
.	.	.	16D\JJ
8.e/L	16d\LL]	8r	16C#\LL
.	16d\J	.	16E\J
.	8c#\J	16r	8AA\J
[16e/Jk	.	[16G/	.
16e/LL]	[4A\	16G/LL]	[4D\
16e/	.	16G/	.
16d/	.	16F/	.
16c#/JJ	.	16E/JJ	.
=11	=11	=11	=11
16d/LL	16A\]	2F/	8D\L]
16a/	16r	.	.
16b/	8r	.	8AA\
16cc#/JJ	.	.	.
16dd/LK	8r	.	8BB-\
[8.ff/J	.	.	.
.	16a\LL	.	8D\J
.	16cc\JJ	.	.
16ff/LL]	[2b-\	[2G/	2GG\
16ff/	.	.	.
16ee-/	.	.	.
16dd/JJ	.	.	.
16ee-/LL	.	.	.
16gg/	.	.	.
16cc#/	.	.	.
16dd/JJ	.	.	.
=12	=12	=12	=12
4.cc#/	16b-\LL]	8.G/L]	2.AA\
.	16b-\J	.	.
.	[8a\J	.	.
.	.	16G/Jk	.
.	16a\LK]	8F#/L	.
.	8a\	.	.
[8dd/	.	8Fn/J	.
.	16g#\Jk	.	.
16dd/LL]	[4a\	8E/L	.
16dd/	.	.	.
16cc#/	.	8D/	.
16b/JJ	.	.	.
16cc#/LL	8.a\L]	8E/	4AA\
16dd/J	.	.	.
[8ee/J	.	[8A/J	.
.	16gn\Jk	.	.
=13	=13	=13	=13
16ee/LL]	[4f\	8A/L]	[2D\
16a/	.	.	.
16dd/	.	8B-/	.
16cc#/JJ	.	.	.
8.dd/L	16f\LL]	8A/	.
.	16f\J	.	.
.	8b-\J	8G/J	.
16ee/Jk	.	.	.
[4ff/	8.a\L	16F/LL	8.D\L]
.	.	16G/J	.
.	.	[8A/J	.
.	16a\Jk	.	16C\Jk
16ff/LL]	8.dd\L	16A/LL]	8.BB\L
16ee/J	.	16G#/J	.
8ff/J	.	8A/J	.
.	[16dd\Jk	.	16AA\Jk
=14	=14	=14	=14
[4ee/	16dd\LL]	16r	8GG#\
.	16dd\	16E/LL	.
.	16cc\	16F#/	8r
.	16b\JJ	16G#/JJ	.
16ee/LL]	[4cc\	[4A/	16r
16ee/	.	.	16C\LL
16aa/	.	.	16F\
16gg#/JJ	.	.	16E\JJ
[4aa/	16cc\LL]	16A/LL]	[4F\
.	16cc#\	16A/	.
.	16dd\	16B/	.
.	16ee\JJ	16c#/JJ	.
16aa/LL]	[4a\	[4d/	16F\LL]
16ggn/	.	.	16E\
16aa/	.	.	16F\
16ff/JJ	.	.	16D\JJ
=15	=15	=15	=15
[4dd/	16a\LL]	16d/LL]	[2B-\
.	16f#\	16d/	.
.	16g\	16e/	.
.	16a\JJ	16f#/JJ	.
16dd/LL]	8b-\	8.g/L	.
16ffn/	.	.	.
16ee/	8r	.	.
16gg/JJ	.	16fn/Jk	.
[4cc/	8r	[4e/	16B-\LL]
.	.	.	16A\
.	[8b-\	.	16G\
.	.	.	16B-\JJ
8.cc/L]	16b-\LL]	16e/LL]	[4A\
.	32a\L	16c/J	.
.	32g\J	.	.
.	16a\	[8f/J	.
16ee-/Jk	16cc\JJ	.	.
=16	=16	=16	=16
[4dd/	4.b-\	4f/]	16A\LL]
.	.	.	16G\
.	.	.	16F\
.	.	.	16A\JJ
16dd/LK]	.	8B-/L	8G\L
8ff/	.	.	.
.	[8b-\	[8c/J	8G\J 8C\
16ee/Jk	.	.	.
8.ff/L	16b-\LL]	8.c/L]	[2F\
.	16g\J	.	.
.	[8a\J	.	.
16cc/Jk	.	16A/Jk	.
16ff/LL	8a\L]	[4d/	.
16aa/	.	.	.
16dd/	8f\J	.	.
16ff/JJ	.	.	.
=17	=17	=17	=17
16bn/LL	8.g\L	4d/]	16F\LL]
16dd/J	.	.	16F\
[8gg/J	.	.	16E\
.	16b\Jk	.	16D\JJ
16gg/LL]	4cc#\	8G/L	8E\L
16gg/	.	.	.
16ff/	.	[8A/J	8AA\J
16ee/JJ	.	.	.
[4ff/	[8dd\L	16A/LL]	[2D\
.	.	16E/	.
.	32dd\LL]	16F/	.
.	32ccn\	.	.
.	32b-\	16A/JJ	.
.	32a\JJJ	.	.
16ff/LL]	8.b-\L	8.d/L	.
16dd/J	.	.	.
[8ff/J	.	.	.
.	16a\Jk	16c/Jk	.
=18	=18	=18	=18
16ff/LL]	8.g#\L	8B/	16D\LL]
16ff/J	.	.	16D\
[8ee/J	.	8r	16C\
.	16g#\Jk	.	16BB\JJ
16ee/LL]	[4a\	4r	8C\L
16ee-/	.	.	.
16dd/	.	.	8F\J
16cc#/JJ	.	.	.
[4dd/	16a\LL]	16r	[4BB-\
.	16cc\	16D/LL	.
.	16b-\	16E/	.
.	16a\JJ	16F#/JJ	.
8.dd/L]	16b-\LL	16G/LL	8.BB-\L]
.	16f#\J	16A/J	.
.	[8gn\J	[8B-/J	.
16dd/Jk	.	.	16E-\Jk
=19	=19	=19	=19
8cc#/L	8.g\L]	16B-/LL]	[4AA\
.	.	16A/	.
[8ccn/J	.	16En/	.
.	16b-\Jk	16G/JJ	.
8.cc/L]	16a\LL	16F#/LL	8.AA\L]
.	16g\	16G/J	.
.	16f#\	[8A/J	.
16cc/Jk	16e-\JJ	.	16F#\Jk
8b/L	16d\LL	16A/LL]	[4GG\
.	16en\	16G/	.
[8b-/J	16fn\	16D/	.
.	16a\JJ	16Fn/JJ	.
8.b-/L]	16g\LL	16E/LL	8.GG\L]
.	16f\	16F/J	.
.	16e\	[8G/J	.
16b-/Jk	16d-\JJ	.	16E\Jk
=20	=20	=20	=20
2a/	4.c\	16G/LL]	[4FF\
.	.	16C/	.
.	.	16D/	.
.	.	16E/JJ	.
.	.	16F/	16FF\LL]
.	.	16r	16A\
.	[8f\	8r	16D\
.	.	.	16F\JJ
[4g/	16f\LL]	2r	8BB\L
.	16f\	.	.
.	16e\	.	8GG\J
.	16d\JJ	.	.
16g/LL]	4e\	.	[4C\
16g/	.	.	.
16a/	.	.	.
16cc/JJ	.	.	.
=21	=21	=21	=21
[4f/	[2d\	4r	16C\LL]
.	.	.	32D\L
.	.	.	32E\
.	.	.	32F\
.	.	.	32G\J
.	.	.	16A\JJ
16f/LL]	.	8r	4BB\
32dd/L	.	.	.
32cc/J	.	.	.
16dd/	.	[8G/	.
16f/JJ	.	.	.
[4e/	16d\LL]	4G/_	4.C\
.	16d\	.	.
.	16c\	.	.
.	16B\JJ	.	.
16e/LL]	8c\	8G/]	.
16g/	.	.	.
16a/	8r	8r	8BB\
16b/JJ	.	.	.
=22	=22	=22	=22
[4cc/	16r	8r	8AA\L
.	16a\LL	.	.
.	16e\	[4.A/	8C\
.	16g\JJ	.	.
8.cc/L]	16f#\LL	.	8D\
.	16a\J	.	.
.	[8d\J	.	8F#\J
16cc/Jk	.	.	.
[4b/	4d\_	16A/LL]	[4GG\
.	.	16D/	.
.	.	16E/	.
.	.	16F#/JJ	.
8b/L]	8d\L]	16G/	16GG\LL]
.	.	16r	16B\
32cc#/LL	[8g\J	8r	16E\
32dd/J	.	.	.
16ee/JJ	.	.	16G\JJ
=23	=23	=23	=23
*v	*v	*	*
[4a/	16g\LL]	8C#/L
.	16g\	.
.	16f\	8AA/
.	16e\JJ	.
16a/LL]	2f\	8D/
16a/	.	.
16b-/	.	8Cn/J
16cc/JJ	.	.
32dd/LLL	.	8BB-/L
32cc/	.	.
32b-/	.	.
32a/J	.	.
16b-/	.	8AA/
16dd/JJ	.	.
16g/LL	[4g\	8BB-/
16ff/	.	.
16ee/	.	8GG/J
16dd/JJ	.	.
=24	=24	=24
[4cc#/	16g\LL]	[2AA/
.	16b-\	.
.	16a\	.
.	16g\JJ	.
16cc#/LL]	8.f\L	.
16a/J	.	.
[8dd/J	.	.
.	16f\Jk	.
8dd/L]	4.e\	16AA\LL]
.	.	16E\
8dd/	.	16F\
.	.	16G\JJ
8ccn/	.	16A\LL
.	.	16c\
8b-/J	[8g\	16E\
.	.	16G\JJ
=25	=25	=25
*^	*	*
8.a/L	16g\LL]	8r	16F#\LL
.	16g\J	.	16A\J
.	8f#\J	16r	8D\J
[16a/Jk	.	[16c/	.
16a/LL]	[4d\	16c/LL]	[4G\
16a/	.	16c/	.
16g/	.	16B-/	.
16f#/JJ	.	16A/JJ	.
16g/LL	16d\]	2B-/	8G\L]
16dd/	16r	.	.
16ee/	8r	.	8D\
16ff#/JJ	.	.	.
16gg/LK	8r	.	8E-\
[8.bb-/J	.	.	.
.	16dd\LL	.	8G\J
.	16ff\JJ	.	.
=26	=26	=26	=26
16bb-/LL]	[2ee-\	[2c/	2C\
16bb-/	.	.	.
16aa-/	.	.	.
16gg/JJ	.	.	.
16aa-/LL	.	.	.
16ccc/	.	.	.
16ff#/	.	.	.
16gg/JJ	.	.	.
4.ff#/	16ee-\LL]	8.c/L]	[2D\
.	16ee-\J	.	.
.	[8dd\J	.	.
.	.	16c/Jk	.
.	16dd\LK]	8Bn/L	.
.	8dd\	.	.
[8gg/	.	8B-/J	.
.	16cc#\Jk	.	.
=27	=27	=27	=27
16gg/LL]	[4dd\	8A/L	4D\]
16gg/	.	.	.
16ff#/	.	8G/	.
16ee/JJ	.	.	.
16ff#/LL	8.dd\L]	8A/	4D\
16gg/J	.	.	.
[8aa/J	.	[8d/J	.
.	16cc\Jk	.	.
16aa/LL]	8b-\L	8d/L]	[2G\
16dd/	.	.	.
16gg/	[8cc\J	8e-/	.
16ff#/JJ	.	.	.
8.gg/L	16cc\LL]	8d/	.
.	16b-\J	.	.
.	8ee-\J	8c/J	.
16aa/Jk	.	.	.
=28	=28	=28	=28
[4bb-/	8.dd\L	16B-/LL	8.G\L]
.	.	16c/J	.
.	.	[8d/J	.
.	16dd\Jk	.	16F\Jk
16bb-/LL]	8.gg\L	16d/LL]	8.E\L
16aa/J	.	16c#/J	.
8bb-/J	.	8d/J	.
.	[16gg\Jk	.	16D\Jk
[4aa/	16gg\LL]	16r	8C#\
.	16gg\	16A/LL	.
.	16ff\	16Bn/	8r
.	16ee\JJ	16c#/JJ	.
8.aa/L]	[4ff\	16d/	16r
.	.	16r	16A\LL
.	.	8r	16D\
16aa-/Jk	.	.	16F\JJ
=29	=29	=29	=29
*^	*	*	*
[4gg/	2ryy	16ff\LL	16r	8BB\
.	.	16ff\	16G/LL	.
.	.	16ee\	16A/	8r
.	.	16dd\JJ	16B/JJ	.
8.gg/L]	.	[4ee\	16c/	16r
.	.	.	16r	16G\LL
.	.	.	8r	16C\
16gg/Jk	.	.	.	16E\JJ
[4ff#/	4ryy	16ee\LL]	8r	4AA\
.	.	16ee-\	.	.
.	.	16dd\	[8A/	.
.	.	16cc\JJ	.	.
16ff#/LL]	[4dd\	8ryy	16A/LL]	4BB\
16ee/J	.	.	16G/	.
[8ffn/J	.	[8g\	16D/	.
.	.	.	16F/JJ	.
=30	=30	=30	=30	=30
*v	*v	*	*	*
8ff/ 8dd/L]	[4g\	16E/LL	[4C\
.	.	16F/J	.
16ee/ 16cc/L	.	[8G/J	.
16dd/ 16b/JJ	.	.	.
[4ee/ 4cc/	8g\L]	16G/]	16C\LL]
.	.	16r	16E\
.	8b-\J	8r	16AA\
.	.	.	16C\JJ
16ee/LL]	[4a\	4r	16FF\LL
16ee/	.	.	16C\
16dd/	.	.	16D\
16cc/JJ	.	.	16E\JJ
16dd/LL	8.a\L]	16r	[4F\
16ff/	.	16A/LK	.
16aa/	.	[8d/J	.
16cc/JJ	16a\Jk	.	.
=31	=31	=31	=31
4b/	4g\	4d/]	16F\LL]
.	.	.	16A\
.	.	.	16G\
.	.	.	16F\JJ
[4cc/	[4g/	[4e\	16E\LL
.	.	.	16G\
.	.	.	16C\
.	.	.	16E\JJ
4cc/_	16g/LL]	16e\LL]	2GG\
.	16g/	16E/	.
.	16f/	16D/	.
.	16e/JJ	16C/JJ	.
8.cc/L]	16d\LL	[4G/	.
.	16e\J	.	.
.	[8f\J	.	.
16b/Jk	.	.	.
=32	=32	=32	=32
2cc/	16f\LL]	2G/_	[1C\
.	16f\	.	.
.	16e\	.	.
.	16d\JJ	.	.
.	16e\LL	.	.
.	16g\	.	.
.	16c\	.	.
.	16e\JJ	.	.
16r	2A/	8G\L]	.
16cc/LL	.	.	.
16dd/	.	16F\L	.
16ee/JJ	.	16E\JJ	.
16ff/LL	.	16D\LL	.
16aa/	.	16E\J	.
16dd/	.	[8F\J	.
16ff/JJ	.	.	.
=33	=33	=33	=33
*^	*	*	*
*^	*	*	*	*
[4b-/	16r	2ryy	[4G/	8F\L	[1C\
.	16a\LL	.	.	.	.
.	16g\	.	.	16E\L	.
.	16f\JJ	.	.	16D\JJ	.
16b-/LK]	8g\L	.	16G/LL]	4E\	.
8b-/	.	.	16F/J	.	.
.	8e\J	.	8G/J	.	.
[16g/Jk	.	.	.	.	.
16g/LL]	4c\	4ryy	8A\L 8F\	2ryy	.
16e/	.	.	.	.	.
16f/	.	.	8G\J 8E\	.	.
16g/JJ	.	.	.	.	.
8.a/L	16r	8r	4F\ 4D\	.	.
.	16f\LK	.	.	.	.
.	8d\J	8A-/	.	.	.
16bn/Jk	.	.	.	.	.
=34	=34	=34	=34	=34	=34
*v	*v	*v	*	*	*
1cc;/ 1g/	1e\ 1c\	1G/ 1E/	1C;\]
==|!	==|!	==|!	==|!
*-	*-	*-	*-
!!!RWG: Key is interpreted using the Humdrum key tool.
!!!AFT: stage2
!!!END: 1994/01/29/
!!format changes:
!!content changes:
!!public access: complete
!!!KEY: 2381502658
!!!EMD: Converted from MuseData to Humdrum Dec 19, 2000, by Andreas Kornstaedt using muse2kern.
